dist/img/meds.svg

<svg width="40" height="40" viewBox="0 0 40 40" fill="currentColor" xmlns="http://www.w3.org/2000/svg">
<g clip-path="url(#clip0_79_153)">
<path d="M36.9086 3.09082C34.9167 1.09772 32.2668 0 29.4485 0C26.6299 0 23.981 1.09772 21.9882 3.09082L12.5394 12.5394L3.09021 21.9891C1.09772 23.9822 0 26.6321 0 29.4498C0 32.2675 1.09772 34.9173 3.09021 36.9092C5.08209 38.9023 7.73193 40 10.5502 40C13.3685 40 16.0178 38.9023 18.0103 36.9092L27.4594 27.4606L36.9086 18.0109C38.9011 16.0178 39.9985 13.3679 39.9985 10.5502C39.9985 7.73254 38.9011 5.0827 36.9086 3.09082ZM16.0211 34.92C14.5593 36.3815 12.6163 37.1869 10.5502 37.1869C8.48328 37.1869 6.54083 36.3818 5.07935 34.92C3.61786 33.4583 2.81342 31.5161 2.81342 29.4501C2.81342 27.384 3.61847 25.4401 5.07935 23.9786L13.5339 15.5234L24.4757 26.4664L16.0211 34.92ZM34.9194 16.0217L26.4648 24.4769L15.5231 13.5339L23.9777 5.07996C25.4391 3.61847 27.3822 2.81311 29.4485 2.81311C31.5152 2.81311 33.4576 3.61816 34.9191 5.07996C36.3806 6.54175 37.1851 8.48389 37.1851 10.5499C37.1851 12.616 36.3803 14.5599 34.9194 16.0217Z" fill="#303030"/>
<path d="M33.2109 9.48547C32.7623 9.48547 32.3213 9.27124 32.0488 8.87421C31.3905 7.9126 30.3047 7.33978 29.1432 7.33978C28.2036 7.33978 27.321 7.70508 26.656 8.37006C26.1064 8.91937 25.2162 8.91937 24.6669 8.37006C24.1176 7.82043 24.1176 6.93024 24.6669 6.38092C25.8629 5.18433 27.4522 4.52637 29.1432 4.52637C31.2333 4.52637 33.1874 5.55664 34.3702 7.28363C34.8091 7.9248 34.6458 8.80005 34.0043 9.23981C33.7617 9.40582 33.4849 9.48547 33.2109 9.48547Z" fill="#303030"/>
</g>
<defs>
<clipPath id="clip0_79_153">
<rect width="40" height="40" fill="white"/>
</clipPath>
</defs>
</svg>

<svg width="40" height="40" fill="currentColor" xmlns="http://www.w3.org/2000/svg"><g clip-path="url(#a)" fill="#303030"><path d="M36.909 3.09A10.478 10.478 0 0 0 29.449 0a10.48 10.48 0 0 0-7.46 3.09l-9.45 9.45-9.449 9.45A10.485 10.485 0 0 0 0 29.45a10.48 10.48 0 0 0 3.09 7.46A10.478 10.478 0 0 0 10.55 40a10.48 10.48 0 0 0 7.46-3.09l9.45-9.45 9.449-9.45a10.484 10.484 0 0 0 3.09-7.46 10.48 10.48 0 0 0-3.09-7.46ZM16.02 34.92a7.688 7.688 0 0 1-5.47 2.267 7.685 7.685 0 0 1-5.472-2.267 7.685 7.685 0 0 1-2.266-5.47A7.69 7.69 0 0 1 5.08 23.98l8.455-8.456 10.942 10.943-8.455 8.454ZM34.92 16.022l-8.454 8.455-10.942-10.943 8.455-8.454a7.687 7.687 0 0 1 5.47-2.267c2.067 0 4.01.805 5.471 2.267a7.685 7.685 0 0 1 2.266 5.47c0 2.066-.805 4.01-2.266 5.472Z"/><path d="M33.21 9.485c-.448 0-.889-.214-1.161-.61a3.52 3.52 0 0 0-5.393-.505 1.406 1.406 0 1 1-1.99-1.99 6.286 6.286 0 0 1 4.477-1.854c2.09 0 4.044 1.03 5.227 2.758a1.407 1.407 0 0 1-1.16 2.201Z"/></g><defs><clipPath id="a"><path fill="#fff" d="M0 0h40v40H0z"/></clipPath></defs></svg>
